X:1
T:Giant steps
C:1960 - John Coltrane
Z:Copyright © www.realbook.site
L:1/8
M:4/4
I:linebreak $
K:Eb
V:1 treble nm=" " snm=" "
V:1
"B" ^f4"D7" d4 |"G" =B4"Bb7" G3 _B- |"Eb" B8 |"Am7" =B3 =A-"D7" A4 |$"G" d4"Bb7" _B4 | %5
"Eb" G4"F#7" E3 ^F- |"B" F8 |"Fm7" G4"Bb7" =F3 B- |$"Eb" B8 |"Am7" =B4"D7" =A3 d- |"G" d8 | %11
"C#m7" ^d4"F#7" ^c3 ^f- |$"B" f8 |"Fm7" g4"Bb7" =f3 b- |"Eb" b8 |"C#m7" ^f3 f-"F#7" f4 |] %16

